Sources/FrostedUI/Resources/Icons.xcassets/code32.imageset/code-32.svg

<svg width="32" height="32" viewBox="0 0 32 32" fill="none" xmlns="http://www.w3.org/2000/svg" data-fui-icon="true">
  <path
    d="M18.2764 4.80252C18.3854 4.40315 18.7978 4.16748 19.1973 4.27615C19.5966 4.38531 19.8315 4.79761 19.7227 5.19705L13.7227 27.1971C13.6137 27.5967 13.2014 27.8324 12.8018 27.7234C12.4026 27.6141 12.1675 27.2019 12.2764 26.8025L18.2764 4.80252ZM23.8184 9.7869C24.1199 9.50312 24.595 9.51782 24.8789 9.81912L28.4922 13.658C29.7304 14.9736 29.7304 17.026 28.4922 18.3416L24.8789 22.1805C24.595 22.482 24.12 22.4965 23.8184 22.2127C23.5173 21.9288 23.5035 21.4536 23.7871 21.1521L27.3994 17.3133C28.094 16.5753 28.094 15.4243 27.3994 14.6863L23.7871 10.8474C23.5036 10.5459 23.5171 10.0707 23.8184 9.7869ZM7.12012 9.81912C7.40382 9.51775 7.87805 9.50363 8.17969 9.7869C8.48132 10.0708 8.4958 10.5458 8.21191 10.8474L4.59863 14.6863C3.90457 15.4241 3.90472 16.5753 4.59863 17.3133L8.21191 21.1521C8.4958 21.4538 8.48132 21.9288 8.17969 22.2127C7.87806 22.4962 7.40389 22.4819 7.12012 22.1805L3.50684 18.3416C2.26898 17.026 2.26883 14.9735 3.50684 13.658L7.12012 9.81912Z"
    fill="currentColor"
  />
</svg>

<svg xmlns="http://www.w3.org/2000/svg" width="32" height="32" fill="none" data-fui-icon="true" viewBox="0 0 32 32"><path fill="currentColor" d="M18.276 4.803a.75.75 0 0 1 1.447.394l-6 22a.75.75 0 1 1-1.447-.395zm5.542 4.984a.75.75 0 0 1 1.06.032l3.614 3.839a3.417 3.417 0 0 1 0 4.684L24.88 22.18a.75.75 0 0 1-1.092-1.029l3.612-3.839a1.916 1.916 0 0 0 0-2.627l-3.612-3.839a.75.75 0 0 1 .031-1.06M7.12 9.819a.75.75 0 0 1 1.092 1.028l-3.613 3.84a1.92 1.92 0 0 0 0 2.626l3.613 3.84A.75.75 0 0 1 7.12 22.18l-3.613-3.838a3.42 3.42 0 0 1 0-4.684z"/></svg>
